site/textType/img/text_icon.svg

<svg width="360" height="60" viewBox="0 0 360 60" fill="none" xmlns="http://www.w3.org/2000/svg">
<g clip-path="url(#clip0_19823_995)">
<path d="M20.625 36.5625H39.375V18.75H22.5C21.9725 18.7694 21.5331 18.955 21.1819 19.3069C20.8306 19.6587 20.645 20.0981 20.625 20.625V36.5625ZM22.5 16.875H40.3125C40.5863 16.875 40.8109 16.9628 40.9866 17.1384C41.1622 17.3141 41.25 17.5387 41.25 17.8125V37.5C41.25 37.7738 41.1622 37.9984 40.9866 38.1741C40.8109 38.3497 40.5863 38.4375 40.3125 38.4375H19.6875L18.75 40.1372V20.625C18.7694 19.57 19.1356 18.6862 19.8487 17.9737C20.5619 17.2612 21.4456 16.895 22.5 16.875ZM22.0312 38.4375C21.6406 38.4569 21.3134 38.5984 21.0497 38.8622C20.7859 39.1259 20.6541 39.4531 20.6541 39.8438C20.6541 40.2344 20.7859 40.5616 21.0497 40.8253C21.3134 41.0891 21.6406 41.2306 22.0312 41.25H39.375V38.4375H22.0312ZM22.0312 36.5625H41.25V41.25C41.2306 41.7775 41.045 42.2169 40.6931 42.5681C40.3412 42.9194 39.9019 43.105 39.375 43.125H22.0312C21.0938 43.1056 20.3175 42.7881 19.7025 42.1725C19.0875 41.5569 18.77 40.7806 18.75 39.8438C18.7694 38.9062 19.0869 38.13 19.7025 37.515C20.3181 36.9 21.0944 36.5825 22.0312 36.5625ZM26.25 18.75V26.1038L29.0625 23.8481L31.875 26.1038V18.75H26.25ZM24.375 16.875H33.75V28.0369C33.7306 28.4275 33.55 28.7059 33.2081 28.8722C32.8663 29.0384 32.5391 29.0044 32.2266 28.77L29.0625 26.25L25.8984 28.77C25.5859 29.0044 25.2587 29.0384 24.9169 28.8722C24.575 28.7059 24.3944 28.4275 24.375 28.0369V16.875Z" fill="#08080A" fill-opacity="0.96"/>
<circle cx="30" cy="30" r="30" fill="#F7E36D" fill-opacity="0.2"/>
<path d="M85.5178 37.5H79.6875C79.4137 37.5 79.1891 37.4122 79.0134 37.2366C78.8378 37.0609 78.75 36.8363 78.75 36.5625V20.625H76.875C76.6012 20.625 76.3766 20.5372 76.2009 20.3616C76.0253 20.1859 75.9375 19.9613 75.9375 19.6875C75.9375 19.4137 76.0253 19.1891 76.2009 19.0134C76.3766 18.8378 76.6012 18.75 76.875 18.75H103.125C103.399 18.75 103.623 18.8378 103.799 19.0134C103.975 19.1891 104.062 19.4137 104.062 19.6875C104.062 19.9613 103.975 20.1859 103.799 20.3616C103.623 20.5372 103.399 20.625 103.125 20.625H101.25V36.5625C101.25 36.8363 101.162 37.0609 100.987 37.2366C100.811 37.4122 100.586 37.5 100.312 37.5H94.4822L97.7344 43.125H95.5659L92.3138 37.5H87.6844L84.4322 43.125H82.2638L85.5178 37.5ZM99.375 20.625H80.625V35.625H99.375V20.625ZM85.0491 30.6741C84.8534 30.8497 84.6287 30.9375 84.375 30.9375C84.1213 30.9375 83.9016 30.8447 83.7159 30.6591C83.5303 30.4734 83.4375 30.2537 83.4375 30C83.4375 29.7463 83.5253 29.5216 83.7009 29.3259L88.0369 25.0191L91.6988 27.7734L94.8919 23.7891C95.1263 23.4959 95.4241 23.3738 95.7853 23.4225C96.1466 23.4713 96.3906 23.6666 96.5175 24.0084C96.6444 24.3503 96.5906 24.6678 96.3563 24.9609L92.0494 30.3516L88.2113 27.48L85.0491 30.6741Z" fill="#08080A" fill-opacity="0.96"/>
<circle cx="90" cy="30" r="30" fill="#4857EC" fill-opacity="0.2"/>
<path d="M147.832 22.5C146.856 22.5 146.123 22.5391 145.635 22.6172C145.147 22.6953 144.727 22.8322 144.375 23.0278C143.789 23.3403 143.339 23.7897 143.027 24.3759C142.831 24.7278 142.694 25.1478 142.616 25.6359C142.538 26.1241 142.499 26.8566 142.499 27.8334V35.9194C142.499 36.8962 142.538 37.6288 142.616 38.1169C142.694 38.605 142.831 39.025 143.027 39.3769C143.339 39.9631 143.789 40.4125 144.375 40.725C144.727 40.9206 145.147 41.0575 145.635 41.1356C146.123 41.2138 146.856 41.2528 147.832 41.2528H152.168C153.145 41.2528 153.878 41.2138 154.366 41.1356C154.854 41.0575 155.274 40.9206 155.626 40.725C156.212 40.4125 156.662 39.9631 156.974 39.3769C157.17 39.025 157.307 38.605 157.385 38.1169C157.463 37.6288 157.502 36.8962 157.502 35.9194V27.8334C157.502 26.8566 157.463 26.1241 157.385 25.6359C157.307 25.1478 157.17 24.7278 156.974 24.3759C156.662 23.7897 156.212 23.3403 155.626 23.0278C155.274 22.8322 154.854 22.6953 154.366 22.6172C153.878 22.5391 153.145 22.5 152.168 22.5H147.832ZM147.832 20.625H152.168C153.38 20.625 154.298 20.6884 154.923 20.8153C155.548 20.9422 156.075 21.1325 156.505 21.3863C157.423 21.8744 158.127 22.5775 158.615 23.4956C158.868 23.9256 159.059 24.4531 159.186 25.0781C159.313 25.7031 159.376 26.6213 159.376 27.8325V35.9184C159.376 37.1297 159.313 38.0478 159.186 38.6728C159.059 39.2978 158.868 39.8253 158.615 40.2553C158.127 41.1734 157.423 41.8766 156.505 42.3647C156.075 42.6184 155.548 42.8088 154.923 42.9356C154.298 43.0625 153.38 43.1259 152.168 43.1259H147.832C146.621 43.1259 145.703 43.0625 145.078 42.9356C144.453 42.8088 143.926 42.6184 143.496 42.3647C142.578 41.8766 141.874 41.1734 141.386 40.2553C141.132 39.8253 140.942 39.2978 140.815 38.6728C140.688 38.0478 140.625 37.1297 140.625 35.9184V27.8325C140.625 26.6213 140.688 25.7031 140.815 25.0781C140.942 24.4531 141.132 23.9256 141.386 23.4956C141.874 22.5775 142.578 21.8744 143.496 21.3863C143.926 21.1325 144.453 20.9422 145.078 20.8153C145.703 20.6884 146.621 20.625 147.832 20.625ZM150 24.375C150.625 24.375 150.938 24.6875 150.938 25.3125V29.0625C150.938 29.6875 150.625 30 150 30C149.375 30 149.063 29.6875 149.063 29.0625V25.3125C149.063 24.6875 149.375 24.375 150 24.375ZM150.938 21.5625C150.938 21.8363 150.85 22.0609 150.674 22.2366C150.498 22.4122 150.274 22.5 150 22.5C149.726 22.5 149.502 22.4122 149.326 22.2366C149.15 22.0609 149.063 21.8363 149.063 21.5625V19.6875C149.063 19.4138 148.975 19.1891 148.799 19.0134C148.623 18.8378 148.399 18.75 148.125 18.75H145.313C145.039 18.75 144.814 18.6622 144.638 18.4866C144.463 18.3109 144.375 18.0863 144.375 17.8125C144.375 17.5388 144.463 17.3141 144.638 17.1384C144.814 16.9628 145.039 16.875 145.313 16.875H148.125C148.926 16.8944 149.59 17.1678 150.117 17.6953C150.645 18.2228 150.918 18.8869 150.938 19.6875V21.5625Z" fill="#08080A" fill-opacity="0.96"/>
<circle cx="150" cy="30" r="30" fill="#FF3344" fill-opacity="0.2"/>
<path d="M200.127 40.0781L204.082 38.76L204.786 39.0825C206.387 39.9031 208.126 40.3134 210.001 40.3134C213.185 40.2159 215.836 39.1759 217.955 37.1934C220.073 35.2109 221.172 32.8134 221.251 30.0009C221.173 27.1884 220.074 24.7909 217.955 22.8084C215.835 20.8259 213.184 19.7859 210.001 19.6884C206.817 19.7859 204.166 20.8259 202.047 22.8084C199.928 24.7909 198.83 27.1884 198.751 30.0009C198.751 31.0165 198.927 32.0225 199.279 33.0187C199.631 34.015 200.148 34.9525 200.831 35.8312L201.476 36.6806L200.127 40.0781ZM198.779 42.4809C198.408 42.5984 198.09 42.5153 197.827 42.2315C197.563 41.9478 197.499 41.6206 197.636 41.25L199.336 36.9722C198.555 35.9372 197.949 34.8287 197.519 33.6469C197.089 32.465 196.874 31.249 196.874 29.999C196.952 26.7765 198.202 23.969 200.624 21.5765C203.046 19.184 206.171 17.929 209.999 17.8115C213.827 17.929 216.952 19.184 219.374 21.5765C221.796 23.969 223.046 26.7765 223.124 29.999C223.046 33.2215 221.796 36.029 219.374 38.4215C216.952 40.814 213.827 42.069 209.999 42.1865C207.87 42.1865 205.849 41.7178 203.934 40.7803L198.779 42.4809ZM210 31.4944C209.726 31.4944 209.477 31.4309 209.253 31.304C209.028 31.1772 208.848 30.9915 208.711 30.7472C208.574 30.5028 208.506 30.2537 208.506 30C208.506 29.7462 208.574 29.4972 208.711 29.2528C208.848 29.0084 209.028 28.8228 209.253 28.6959C209.477 28.569 209.726 28.5056 210 28.5056C210.43 28.5056 210.787 28.6472 211.07 28.9303C211.353 29.2134 211.494 29.57 211.494 30C211.494 30.43 211.353 30.7865 211.07 31.0697C210.787 31.3528 210.43 31.4944 210 31.4944ZM215.625 31.4944C215.351 31.4944 215.102 31.4309 214.878 31.304C214.653 31.1772 214.473 30.9915 214.336 30.7472C214.199 30.5028 214.131 30.2537 214.131 30C214.131 29.7462 214.199 29.4972 214.336 29.2528C214.473 29.0084 214.653 28.8228 214.878 28.6959C215.102 28.569 215.351 28.5056 215.625 28.5056C216.055 28.5056 216.412 28.6472 216.695 28.9303C216.978 29.2134 217.119 29.57 217.119 30C217.119 30.43 216.978 30.7865 216.695 31.0697C216.412 31.3528 216.055 31.4944 215.625 31.4944ZM204.375 31.4944C204.101 31.4944 203.852 31.4309 203.628 31.304C203.403 31.1772 203.223 30.9915 203.086 30.7472C202.949 30.5028 202.881 30.2537 202.881 30C202.881 29.7462 202.949 29.4972 203.086 29.2528C203.223 29.0084 203.403 28.8228 203.628 28.6959C203.852 28.569 204.101 28.5056 204.375 28.5056C204.805 28.5056 205.162 28.6472 205.445 28.9303C205.728 29.2134 205.869 29.57 205.869 30C205.869 30.43 205.728 30.7865 205.445 31.0697C205.162 31.3528 204.805 31.4944 204.375 31.4944Z" fill="#08080A" fill-opacity="0.96"/>
<circle cx="210" cy="30" r="30" fill="#48EC9D" fill-opacity="0.2"/>
<path d="M270 30C271.602 29.9606 272.93 29.4137 273.984 28.3594C275.039 27.305 275.586 25.9769 275.625 24.375C275.586 22.7731 275.039 21.445 273.984 20.3906C272.93 19.3363 271.602 18.7894 270 18.75C268.398 18.7894 267.07 19.3363 266.016 20.3906C264.961 21.445 264.414 22.7731 264.375 24.375C264.414 25.9769 264.961 27.305 266.016 28.3594C267.07 29.4137 268.398 29.9606 270 30ZM270 31.875C267.871 31.8162 266.104 31.0837 264.697 29.6775C263.291 28.2712 262.559 26.5037 262.5 24.375C262.559 22.2463 263.291 20.4787 264.697 19.0725C266.104 17.6662 267.871 16.9338 270 16.875C272.129 16.9338 273.896 17.6662 275.302 19.0725C276.709 20.4787 277.441 22.2463 277.5 24.375C277.441 26.5037 276.709 28.2712 275.302 29.6775C273.896 31.0837 272.129 31.8162 270 31.875ZM270 30C270.274 30 270.498 30.0878 270.674 30.2634C270.85 30.4391 270.938 30.6637 270.938 30.9375V38.4375C270.938 38.7113 270.85 38.9359 270.674 39.1116C270.498 39.2872 270.274 39.375 270 39.375C269.726 39.375 269.502 39.2872 269.326 39.1116C269.15 38.9359 269.062 38.7113 269.062 38.4375V30.9375C269.062 30.6637 269.15 30.4391 269.326 30.2634C269.502 30.0878 269.726 30 270 30ZM266.25 34.0134V35.9175C264.551 36.2106 263.193 36.5962 262.178 37.0744C261.162 37.5525 260.644 38.0066 260.625 38.4366C260.684 39.0422 261.587 39.6525 263.335 40.2675C265.083 40.8825 267.305 41.2097 270 41.2491C272.696 41.2097 274.917 40.8825 276.665 40.2675C278.412 39.6525 279.316 39.0422 279.375 38.4366C279.356 38.0066 278.838 37.5525 277.823 37.0744C276.807 36.5962 275.449 36.2106 273.75 35.9175V34.0134C275.977 34.3453 277.774 34.9069 279.141 35.6981C280.507 36.4894 281.211 37.4025 281.25 38.4375C281.172 39.7656 280.073 40.8691 277.954 41.7478C275.834 42.6266 273.183 43.0856 270 43.125C266.816 43.0856 264.165 42.6266 262.046 41.7478C259.927 40.8691 258.829 39.7656 258.75 38.4375C258.789 37.4025 259.493 36.4894 260.859 35.6981C262.226 34.9069 264.023 34.3453 266.25 34.0134Z" fill="#08080A" fill-opacity="0.96"/>
<circle cx="270" cy="30" r="30" fill="#8DFF33" fill-opacity="0.2"/>
<path d="M318.75 26.25V39.375H341.25V26.25H318.75ZM317.812 24.375H342.188C342.461 24.375 342.686 24.4628 342.862 24.6384C343.037 24.8141 343.125 25.0387 343.125 25.3125V40.3125C343.125 40.5863 343.037 40.8109 342.862 40.9866C342.686 41.1622 342.461 41.25 342.188 41.25H317.812C317.539 41.25 317.314 41.1622 317.138 40.9866C316.963 40.8109 316.875 40.5863 316.875 40.3125V25.3125C316.875 25.0387 316.963 24.8141 317.138 24.6384C317.314 24.4628 317.539 24.375 317.812 24.375ZM319.688 20.625H340.312V22.5H319.688V20.625ZM322.5 16.875H337.5V18.75H322.5V16.875Z" fill="#08080A" fill-opacity="0.96"/>
<circle cx="330" cy="30" r="30" fill="#6DEFF7" fill-opacity="0.2"/>
</g>
<defs>
<clipPath id="clip0_19823_995">
<rect width="360" height="60" fill="white"/>
</clipPath>
</defs>
</svg>

<svg width="360" height="60" fill="none" xmlns="http://www.w3.org/2000/svg"><g clip-path="url(#clip0_19823_995)"><path d="M20.6 36.6h18.8V18.8H22.5c-.5 0-1 .2-1.3.5-.4.4-.6.8-.6 1.3v16zm1.9-19.7h17.8l.7.2c.2.2.3.4.3.7v19.7c0 .3-.1.5-.3.7l-.7.2H19.7l-.9 1.7V20.6c0-1 .3-1.9 1-2.6.8-.7 1.6-1.1 2.7-1.1zM22 38.4c-.4.1-.7.2-1 .5-.2.2-.3.6-.3.9 0 .4.1.8.3 1l1 .5h17.4v-2.9H22zm0-1.8h19.3v4.7c-.1.5-.3.9-.6 1.3-.4.4-.8.5-1.3.5H22c-1 0-1.7-.3-2.3-.9-.7-.6-.9-1.4-.9-2.4 0-.8.2-1.7.9-2.3.6-.6 1.3-.9 2.3-.9zm4.3-17.8v7.3l2.7-2.3 2.9 2.3v-7.3h-5.6zm-1.9-1.9h9.4V28c-.1.4-.3.7-.6.9-.3.1-.7.1-1-.1L29 26.3l-3.1 2.5c-.3.2-.6.2-.9.1-.4-.2-.6-.5-.6-.9V16.9z" fill="#08080A" fill-opacity=".96"/><circle cx="30" cy="30" r="30" fill="#F7E36D" fill-opacity=".2"/><path d="M85.5 37.5h-5.8c-.3 0-.5-.1-.7-.3-.2-.2-.2-.4-.2-.6v-16h-1.9l-.7-.2c-.2-.2-.2-.4-.2-.7 0-.3 0-.5.2-.7.2-.2.4-.2.7-.2h26.2c.3 0 .5 0 .7.2.2.2.2.4.2.7 0 .3 0 .5-.2.7l-.7.2h-1.8v16l-.3.6c-.2.2-.4.3-.7.3h-5.8l3.2 5.6h-2.1l-3.3-5.6h-4.6l-3.3 5.6h-2.1l3.2-5.6zm13.9-16.9H80.6v15h18.8v-15zM85 30.7l-.6.3c-.3 0-.5-.2-.7-.3-.2-.2-.3-.4-.3-.7 0-.3.1-.5.3-.7L88 25l3.7 2.8 3.2-4c.2-.3.5-.4.9-.4.3.1.6.3.7.6.1.4.1.7-.1 1L92 30.4l-3.8-2.9-3.2 3.2z" fill="#08080A" fill-opacity=".96"/><circle cx="90" cy="30" r="30" fill="#4857EC" fill-opacity=".2"/><path d="M147.8 22.5l-2.2.1-1.2.4c-.6.3-1.1.8-1.4 1.4l-.4 1.2-.1 2.2V36l.1 2.1.4 1.3c.3.6.8 1 1.4 1.3.3.3.7.3 1.2.4l2.2.2h4.4l2.2-.2c.5-.1.9-.1 1.2-.4.6-.3 1.1-.7 1.4-1.3l.4-1.3.1-2.1v-8.2l-.1-2.2-.4-1.2c-.3-.6-.8-1.1-1.4-1.4l-1.2-.4-2.2-.1h-4.4zm0-1.9h4.4l2.8.2 1.5.6c.9.5 1.6 1.2 2.1 2.1l.6 1.5.2 2.8V36l-.2 2.7c-.2.6-.3 1.1-.6 1.6-.5.9-1.2 1.6-2.1 2.1l-1.5.6-2.8.1h-4.4L145 43l-1.5-.6c-.9-.5-1.6-1.2-2.1-2.1-.3-.5-.4-1-.6-1.6l-.2-2.7v-8.2l.2-2.8.6-1.5c.5-.9 1.2-1.6 2.1-2.1l1.5-.6 2.8-.2zm2.2 3.8c.6 0 1 .3 1 .9V29c0 .7-.4 1-1 1s-1-.3-1-1v-3.7c0-.6.4-.9 1-.9zm1-2.8l-.3.6c-.2.2-.4.3-.7.3-.3 0-.5-.1-.7-.3l-.3-.6v-1.9c0-.3 0-.5-.2-.7-.2-.2-.4-.2-.7-.2h-2.8c-.3 0-.5-.1-.7-.3l-.2-.7.2-.7.7-.2h2.8c.9 0 1.5.3 2 .8s.9 1.2.9 2v1.9z" fill="#08080A" fill-opacity=".96"/><circle cx="150" cy="30" r="30" fill="#F34" fill-opacity=".2"/><path d="M200.1 40l3.9-1.2.8.2c1.6.9 3.3 1.3 5.2 1.3 3.2-.1 5.8-1.1 8-3.1 2-2 3.2-4.4 3.3-7.2-.1-2.8-1.3-5.2-3.3-7.2-2.2-2-4.8-3-8-3.1-3.2.1-5.8 1.1-8 3.1-2 2-3.2 4.4-3.2 7.2 0 1 .2 2 .5 3s.8 2 1.5 2.8l.7.9-1.4 3.3zm-1.3 2.5c-.4.1-.8 0-1-.3-.2-.2-.3-.6-.2-.9l1.7-4.3c-.7-1-1.3-2.2-1.8-3.4-.5-1.1-.6-2.4-.6-3.6.1-3.2 1.3-6 3.7-8.4 2.4-2.4 5.6-3.6 9.4-3.8 3.8.2 7 1.4 9.4 3.8 2.4 2.4 3.6 5.2 3.7 8.4-.1 3.2-1.3 6-3.7 8.4-2.4 2.4-5.6 3.6-9.4 3.8-2.1 0-4.2-.5-6-1.4l-5.2 1.7zm11.2-11l-.7-.2c-.3-.1-.5-.3-.6-.6l-.2-.7.2-.7c.1-.3.3-.5.6-.6l.7-.2c.4 0 .8.1 1 .5.4.2.5.6.5 1s-.1.8-.5 1c-.2.4-.6.5-1 .5zm5.6 0l-.7-.2-.6-.6-.2-.7.2-.7.6-.6.7-.2c.4 0 .8.1 1.1.5.3.2.4.6.4 1s-.1.8-.4 1c-.3.4-.7.5-1.1.5zm-11.2 0l-.8-.2-.6-.6-.1-.7.1-.7.6-.6.8-.2c.4 0 .8.1 1 .5.3.2.5.6.5 1s-.2.8-.5 1c-.2.4-.6.5-1 .5z" fill="#08080A" fill-opacity=".96"/><circle cx="210" cy="30" r="30" fill="#48EC9D" fill-opacity=".2"/><path d="M270 30c1.6 0 3-.6 4-1.6 1-1.1 1.6-2.4 1.6-4s-.6-3-1.6-4c-1-1.1-2.4-1.6-4-1.6s-3 .5-4 1.6c-1 1-1.6 2.4-1.6 4s.6 2.9 1.6 4c1 1 2.4 1.6 4 1.6zm0 1.9c-2.1-.1-3.9-.9-5.3-2.2-1.4-1.4-2.1-3.2-2.2-5.3.1-2.2.8-3.9 2.2-5.4 1.4-1.3 3.2-2 5.3-2.1 2.1.1 3.9.8 5.3 2.1 1.4 1.5 2.1 3.2 2.2 5.4-.1 2.1-.8 3.9-2.2 5.3-1.4 1.3-3.2 2.1-5.3 2.2zm0-1.9c.3 0 .5 0 .7.3.2.1.3.4.3.7v7.4c0 .3-.1.6-.3.7-.2.2-.4.3-.7.3-.3 0-.5-.1-.7-.3-.2-.1-.3-.4-.3-.7V31c0-.3.1-.6.3-.7.2-.3.4-.3.7-.3zm-3.7 4v2c-1.7.2-3.1.6-4.1 1-1 .6-1.6 1-1.6 1.4.1.6 1 1.3 2.7 1.9 1.7.6 4 .9 6.7.9s5-.3 6.7-.9c1.7-.6 2.6-1.3 2.7-1.9 0-.4-.6-.8-1.6-1.4-1-.4-2.4-.8-4-1v-2c2.2.3 4 1 5.3 1.7 1.4.8 2.1 1.7 2.2 2.7-.1 1.4-1.3 2.5-3.3 3.3-2.2.9-4.8 1.3-8 1.4-3.2-.1-5.8-.5-8-1.4-2-.8-3.2-1.9-3.2-3.3 0-1 .7-1.9 2.1-2.7 1.3-.7 3.1-1.4 5.4-1.7z" fill="#08080A" fill-opacity=".96"/><circle cx="270" cy="30" r="30" fill="#8DFF33" fill-opacity=".2"/><path d="M318.8 26.3v13.1h22.5V26.3h-22.5zm-1-1.9h24.4l.7.2.2.7v15l-.2.7c-.2.2-.4.3-.7.3h-24.4c-.3 0-.5-.1-.7-.3l-.2-.7v-15l.2-.7.7-.2zm1.9-3.8h20.6v1.9h-20.6v-1.9zm2.8-3.7h15v1.9h-15v-1.9z" fill="#08080A" fill-opacity=".96"/><circle cx="330" cy="30" r="30" fill="#6DEFF7" fill-opacity=".2"/></g><defs><clipPath id="clip0_19823_995"><path fill="#fff" d="M0 0h360v60H0z"/></clipPath></defs></svg>
